source/img/icons/icon-instagram.svg

<svg width="23" height="23" viewBox="0 0 23 23" fill="none" xmlns="http://www.w3.org/2000/svg">
<path d="M11.4775 0.0898438C13.3942 0.0898438 14.959 0.112305 16.1719 0.157227C17.2051 0.202148 18.126 0.381836 18.9346 0.696289C19.7132 0.995768 20.387 1.43001 20.9561 1.99902C21.5251 2.56803 21.9593 3.24186 22.2588 4.02051C22.5732 4.8291 22.7529 5.75 22.7979 6.7832C22.8428 7.99609 22.8652 9.56087 22.8652 11.4775C22.8652 13.3942 22.8428 14.959 22.7979 16.1719C22.7529 17.2051 22.5732 18.126 22.2588 18.9346C21.9593 19.7132 21.5251 20.387 20.9561 20.9561C20.387 21.5251 19.7132 21.9593 18.9346 22.2588C18.126 22.5732 17.2051 22.7529 16.1719 22.7978C14.959 22.8428 13.3942 22.8652 11.4775 22.8652C9.56087 22.8652 7.99609 22.8428 6.7832 22.7978C5.75 22.7529 4.8291 22.5732 4.02051 22.2588C3.24186 21.9593 2.56803 21.5251 1.99902 20.9561C1.43001 20.387 0.995768 19.7132 0.696289 18.9346C0.381836 18.126 0.202148 17.2051 0.157227 16.1719C0.112305 14.959 0.0898438 13.3942 0.0898438 11.4775C0.0898438 9.56087 0.112305 7.99609 0.157227 6.7832C0.202148 5.75 0.381836 4.8291 0.696289 4.02051C0.995768 3.24186 1.43001 2.56803 1.99902 1.99902C2.56803 1.43001 3.24186 0.995768 4.02051 0.696289C4.8291 0.381836 5.75 0.202148 6.7832 0.157227C7.99609 0.112305 9.56087 0.0898438 11.4775 0.0898438ZM11.4775 1.57227C9.486 1.57227 7.86133 1.59473 6.60352 1.63965C5.79492 1.6696 5.04622 1.81185 4.35742 2.06641C3.2793 2.51562 2.51562 3.2793 2.06641 4.35742C1.81185 5.04622 1.6696 5.79492 1.63965 6.60352C1.59473 7.86133 1.57227 9.486 1.57227 11.4775C1.57227 13.4691 1.59473 15.0937 1.63965 16.3516C1.6696 17.1602 1.81185 17.9089 2.06641 18.5977C2.51562 19.6758 3.2793 20.4395 4.35742 20.8887C5.04622 21.1432 5.79492 21.2855 6.60352 21.3154C7.86133 21.3603 9.486 21.3828 11.4775 21.3828C13.4691 21.3828 15.0938 21.3603 16.3516 21.3154C17.1602 21.2855 17.9089 21.1432 18.5977 20.8887C19.6758 20.4395 20.4395 19.6758 20.8887 18.5977C21.1432 17.9089 21.2855 17.1602 21.3154 16.3516C21.3604 15.0937 21.3828 13.4691 21.3828 11.4775C21.3828 9.486 21.3604 7.86133 21.3154 6.60352C21.2855 5.79492 21.1432 5.04622 20.8887 4.35742C20.4395 3.2793 19.6758 2.51562 18.5977 2.06641C17.9089 1.81185 17.1602 1.6696 16.3516 1.63965C15.0938 1.59473 13.4691 1.57227 11.4775 1.57227ZM11.4775 16.0371C12.7354 16.0371 13.8097 15.5916 14.7007 14.7007C15.5916 13.8097 16.0371 12.7354 16.0371 11.4775C16.0371 10.2197 15.5916 9.14534 14.7007 8.25439C13.8097 7.36344 12.7354 6.91797 11.4775 6.91797C10.2197 6.91797 9.14534 7.36344 8.25439 8.25439C7.36344 9.14534 6.91797 10.2197 6.91797 11.4775C6.91797 12.7354 7.36344 13.8097 8.25439 14.7007C9.14534 15.5916 10.2197 16.0371 11.4775 16.0371ZM11.4775 5.63769C13.0947 5.63769 14.4723 6.20671 15.6104 7.34473C16.7484 8.48275 17.3174 9.86035 17.3174 11.4775C17.3174 13.0947 16.7484 14.4723 15.6104 15.6104C14.4723 16.7484 13.0947 17.3174 11.4775 17.3174C9.86035 17.3174 8.48275 16.7484 7.34473 15.6104C6.20671 14.4723 5.6377 13.0947 5.6377 11.4775C5.6377 9.86035 6.20671 8.48275 7.34473 7.34473C8.48275 6.20671 9.86035 5.63769 11.4775 5.63769ZM18.9346 5.41309C18.9346 5.78743 18.7998 6.10563 18.5303 6.36768C18.2607 6.62972 17.9313 6.76074 17.542 6.76074C17.1676 6.76074 16.8494 6.62972 16.5874 6.36768C16.3254 6.10563 16.1943 5.78743 16.1943 5.41309C16.1943 5.02376 16.3254 4.69434 16.5874 4.4248C16.8494 4.15527 17.1676 4.02051 17.542 4.02051C17.9163 4.02051 18.242 4.15902 18.519 4.43603C18.7961 4.71305 18.9346 5.03874 18.9346 5.41309Z" fill="#666666"/>
</svg>

<svg width="23" height="23" fill="none" xmlns="http://www.w3.org/2000/svg"><path d="M11.477.09c1.917 0 3.482.022 4.695.067 1.033.045 1.954.225 2.763.54.778.299 1.452.733 2.021 1.302a5.732 5.732 0 0 1 1.303 2.022c.314.808.494 1.729.539 2.762.045 1.213.067 2.778.067 4.694 0 1.917-.022 3.482-.067 4.695-.045 1.033-.225 1.954-.54 2.763a5.733 5.733 0 0 1-1.302 2.021 5.733 5.733 0 0 1-2.021 1.303c-.809.314-1.73.494-2.763.539-1.213.045-2.778.067-4.695.067-1.916 0-3.48-.022-4.694-.067-1.033-.045-1.954-.225-2.762-.54a5.732 5.732 0 0 1-2.022-1.302 5.733 5.733 0 0 1-1.303-2.021c-.314-.809-.494-1.73-.539-2.763a131.868 131.868 0 0 1-.067-4.695c0-1.916.022-3.48.067-4.694.045-1.033.225-1.954.54-2.762.299-.78.733-1.453 1.302-2.022A5.731 5.731 0 0 1 4.021.696C4.829.382 5.75.202 6.783.157 7.996.112 9.561.09 11.477.09Zm0 1.482c-1.991 0-3.616.023-4.873.068a7.21 7.21 0 0 0-2.247.426c-1.078.45-1.841 1.213-2.29 2.291a7.21 7.21 0 0 0-.427 2.247 142.032 142.032 0 0 0-.068 4.873c0 1.992.023 3.617.068 4.875a7.21 7.21 0 0 0 .426 2.246c.45 1.078 1.213 1.841 2.291 2.29a7.211 7.211 0 0 0 2.247.427c1.257.045 2.882.068 4.873.068 1.992 0 3.617-.023 4.875-.068a7.211 7.211 0 0 0 2.246-.426c1.078-.45 1.841-1.213 2.29-2.291a7.211 7.211 0 0 0 .427-2.246c.045-1.258.068-2.883.068-4.875 0-1.991-.023-3.616-.068-4.873a7.211 7.211 0 0 0-.426-2.247c-.45-1.078-1.213-1.841-2.291-2.29a7.21 7.21 0 0 0-2.246-.427 142.035 142.035 0 0 0-4.875-.068Zm0 14.465c1.258 0 2.333-.445 3.224-1.336.89-.891 1.336-1.966 1.336-3.224 0-1.257-.445-2.332-1.336-3.223-.891-.89-1.966-1.336-3.224-1.336-1.257 0-2.332.445-3.223 1.336-.89.891-1.336 1.966-1.336 3.223 0 1.258.445 2.333 1.336 3.224.891.89 1.966 1.336 3.223 1.336Zm0-10.4c1.618 0 2.995.57 4.133 1.708s1.707 2.515 1.707 4.132c0 1.618-.569 2.995-1.707 4.133-1.138 1.138-2.515 1.707-4.133 1.707-1.617 0-2.994-.569-4.132-1.707-1.138-1.138-1.707-2.515-1.707-4.133 0-1.617.569-2.994 1.707-4.132 1.138-1.138 2.515-1.707 4.132-1.707Zm7.458-.224c0 .374-.135.693-.405.955s-.599.393-.988.393a1.3 1.3 0 0 1-.955-.393 1.3 1.3 0 0 1-.393-.955c0-.39.131-.719.393-.988.262-.27.58-.404.955-.404.374 0 .7.138.977.415.277.277.416.603.416.977Z" fill="#666"/></svg>
